X:1
T:25.  Oh God, We Praise Thee
T:Hugo Distler
T:Latin, 5th cent.
T:25.  Oh God, We Praise Thee
T:Herr Gott, dich loben wir  (Tedeum) Pentecost
T:Bärenreiter
T:Bärenreiter
T:Bärenreiter
T:Bärenreiter
C:Hugo Distler
Z:Latin, 5th cent.
Z:Bärenreiter
%%score [ 1 2 [ ( 3 4 ) ( 5 6 ) ] ]
L:1/8
Q:1/4=88
M:none
K:C
V:1 treble nm="MusicXML Part"
V:2 treble nm="MusicXML Part"
V:3 treble nm="MusicXML Part"
V:4 treble 
V:5 bass nm="MusicXML Part"
V:6 bass 
V:1
 z30 ||[M:4/4]"^Broad 4, but not slowly \n(Breite Viertel, doch nicht langsam.)" c2 !breath!c4 B2 | %2
w: |O God, we|
 A4 G4 || z28 ||[M:4/4] z2 G4 A2 | B2 (B2 c3 B | A2) A2 G4 || z32 ||[M:4/4] G3 G A4 | B6 (c2- | %10
w: thank Thee.||All the|earth praise _ _|_ doth sing.||All Thy ser-|vants there|
 cB) A2 G4 || z44 ||[M:2/4] A2 A2 |[M:4/4] (G2 A2) B2 c2- | c2 A2 B4 || z40 ||[M:4/4] (E4 G3 A | %17
w: _ _ in heav'n,||ev- er|more _ a- loud|_ do sing:||Ho- * *|
 B2 c2) c3 c | A4 ^G4 | A8 |] %20
w: * * ly is|God, the|Lord!|
V:2
"^Freely (Frei im Zeitmaß)" E4 !breath!G4 A2 (c2 B3 A G2) (G4 A8) ||[M:4/4] z8 | z8 || %3
w: Oh God, we praise _ _ _ Thee. _|||
 !breath!c4 (B2 c2 A4) A2 A2 B2 A2 A8 ||[M:4/4] z8 | z8 | z8 || %7
w: Oh Fa- * * ther ev- er- last- ing||||
 c2 (c2 d2) !breath!B4 B2 (d3 edc A4) A2 A8 ||[M:4/4] z8 | z8 | z8 || %11
w: The an- * gels and hosts _ _ _ _ of heav'n,||||
 c2 (c4 B2) A2 !breath!A3 A (c4 d3 e f2 e3 d c2 d2) B4 A8 ||[M:2/4] z4 |[M:4/4] z8 | z8 || %15
w: The Che- * ru- bim and Se- * * * * * * * ra- phim||||
 E4 !breath!D2 E4 !breath!D2 (E2 G2) G3 G (AB c4 B3 A) G2 G8 ||[M:4/4] z8 | z8 | z8 | z8 |] %20
w: Ho- ly, ho- ly, ho- * ly is God, _ _ _ _ the Lord!|||||
V:3
 z30 ||[M:4/4] A2 !breath!A4 G2 | (FEDC) B,4 || z28 ||[M:4/4] z2 (G2 F2) E2 | (DEFG A2) G2- | %6
w: |O God, we|thank _ _ _ Thee.||All _ the|earth _ _ _ _ praise|
 G2 F2 E4 || z32 ||[M:4/4] z2 C3 C (D2- | DE ^F2 ^G2) A2 | =G3 ^F G4 || z44 ||[M:2/4] =F2 G2 | %13
w: _ doth sing.||All Thy ser-|* * * * vants|there in heav'n,||ev- er-|
[M:4/4] E4 D2 (E^F | GA) (Bc) d4 || z40 ||[M:4/4] G8 | ^F2 E2 (A3 G | ^FED^C B,2) B,2 | E8 |] %20
w: more a- loud _|_ _ do _ sing:||Ho-|ly is God, _|_ _ _ _ _ the|Lord!|
V:4
 x30 ||[M:4/4] x8 | x8 || x28 ||[M:4/4] x8 | x8 | x8 || x32 ||[M:4/4] x8 | x8 | x8 || x44 || %12
[M:2/4] x4 |[M:4/4] x8 | x8 || x40 ||[M:4/4] x8 | x8 | x8 | ^C8 |] %20
V:5
 z30 ||[M:4/4] F,2 (C,3 D, E,2- | !breath!E,)A,, A,,2 E,4 || z28 ||[M:4/4] z2 (E,3 D,) C,2 | %5
w: |O God, _ _|_ we thank Thee.||All _ the|
 G,4 (F,G,A,B, | C2) C2 C,4 || z32 ||[M:4/4] z8 | G,2 B,2 (E,D,) C,2 | D,4 G,4 || z44 || %12
w: earth praise _ _ _|_ doth sing.|||All Thy ser- * vants|in heav'n||
[M:2/4] F,2 F,2 |[M:4/4] C,2 G,4 C,2- | C,2 E,2 G,4 || z40 ||[M:4/4] C4 G,4 | G,2 (A,3 G,F,E, | %18
w: ev- er-|more a- loud|_ do sing:||Ho- ly|is God, _ _ _|
 D,4) E,4 | A,8 |] %20
w: _ the|Lord!|
V:6
 x30 ||[M:4/4] x8 | x8 || x28 ||[M:4/4] x8 | x8 | x8 || x32 ||[M:4/4] x8 | x8 | x8 || x44 || %12
[M:2/4] x4 |[M:4/4] x8 | x8 || x40 ||[M:4/4] x8 | x8 | x8 | A,,8 |] %20

